X: 161
T: Xinshang de ren
L: 1/8
M: 2/4
K: F
c2c d [I:setbarnb 1]| 
c2B A | 
G2G A | 
c4 | 
A2A G | 
F4 | 
c2c A | 
G3A | 
C2C D | 
F4 | 
A G F D | 
C4 |]

@@@ Tune index: 9035
